bomb-off.svg

<svg fill="currentColor" viewBox="0 0 24 24"><path d="M14.5 2.75c-1.8 0-3.25 1.45-3.25 3.25H10v1.29c-.69.21-1.33.52-1.92.91l9.71 9.71A6.9 6.9 0 0 0 19 14c0-3.17-2.11-5.85-5-6.71V6h-1.25a1.75 1.75 0 0 1 1.75-1.75A1.75 1.75 0 0 1 16.25 6a2.25 2.25 0 0 0 2.25 2.25c1.24 0 2.24-1.01 2.24-2.25v-.75h-1.49V6c0 .42-.34.75-.75.75-.42 0-.75-.33-.75-.75 0-1.8-1.46-3.25-3.25-3.25M3.41 6.36 2 7.77l3.55 3.55C5.2 12.14 5 13.04 5 14c0 3.86 3.13 7 7 7 .92 0 1.83-.19 2.68-.55L18.23 24l1.41-1.41z"/></svg>

<svg  viewBox="0 0 24 24" fill="currentColor"><path  d="M14.5,2.75C12.7,2.75 11.25,4.2 11.25,6H10V7.29C9.31,7.5 8.67,7.81 8.08,8.2L17.79,17.91C18.58,16.76 19,15.39 19,14C19,10.83 16.89,8.15 14,7.29V6H12.75A1.75,1.75 0 0,1 14.5,4.25A1.75,1.75 0 0,1 16.25,6A2.25,2.25 0 0,0 18.5,8.25C19.74,8.25 20.74,7.24 20.74,6V5.25H19.25V6C19.25,6.42 18.91,6.75 18.5,6.75C18.08,6.75 17.75,6.42 17.75,6C17.75,4.2 16.29,2.75 14.5,2.75M3.41,6.36L2,7.77L5.55,11.32C5.2,12.14 5,13.04 5,14C5,17.86 8.13,21 12,21C12.92,21 13.83,20.81 14.68,20.45L18.23,24L19.64,22.59L3.41,6.36Z"/></svg>
